core/icons/src/images/chains/Seda.svg

<svg version="1.1" id="Layer_1" xmlns="http://www.w3.org/2000/svg" xmlns:xlink="http://www.w3.org/1999/xlink" x="0px" y="0px"
	 width="100%" viewBox="0 0 52 56" enable-background="new 0 0 52 56" xml:space="preserve">
<path fill="#010101" opacity="1.000000" stroke="none" 
	d="
M36.004738,57.000000 
	C24.003736,57.000000 12.503855,57.000000 1.002981,57.000000 
	C1.001987,38.334850 1.001987,19.669703 1.000993,1.003416 
	C18.331636,1.002277 35.663273,1.002277 52.996178,1.001139 
	C52.997452,19.664774 52.997452,38.329548 52.998726,56.997162 
	C47.501953,57.000000 42.003902,57.000000 36.004738,57.000000 
M25.934305,10.878152 
	C23.972715,12.049443 21.583527,12.838878 20.131310,14.465051 
	C16.096416,18.983269 16.594610,21.426546 21.729490,24.772581 
	C22.954428,25.570784 24.351595,26.110455 25.685904,26.734035 
	C31.397293,29.403212 37.114796,32.059299 43.801121,35.172253 
	C45.531681,33.713547 48.334000,31.351444 51.595406,28.602369 
	C49.131905,26.698486 47.608852,25.111103 45.757374,24.169548 
	C40.746487,21.621305 35.465988,19.580603 30.566483,16.847340 
	C28.668697,15.788631 27.507999,13.408654 25.934305,10.878152 
M36.982346,43.239090 
	C40.510311,38.468334 40.060181,35.833763 34.994236,32.879280 
	C33.301189,31.891888 31.334803,31.386194 29.551426,30.538202 
	C24.459732,28.117107 19.397879,25.633268 13.314512,22.684675 
	C11.591565,24.057890 8.707308,26.356688 4.421871,29.772247 
	C10.192492,32.816299 14.798302,35.137287 19.297480,37.649265 
	C23.960573,40.252754 30.627054,40.493408 31.380003,48.427750 
	C33.371113,46.636875 34.940437,45.225372 36.982346,43.239090 
M32.792290,15.586622 
	C34.506813,16.265741 36.221336,16.944859 37.935863,17.623978 
	C38.234436,17.191906 38.533012,16.759834 38.831585,16.327763 
	C35.802914,13.602008 32.774242,10.876253 28.889744,7.380269 
	C28.027765,12.242409 29.254866,14.224464 32.792290,15.586622 
M28.512848,46.717171 
	C27.012123,42.144405 23.213556,41.635166 19.026190,41.577858 
	C20.979063,44.229233 23.233877,46.511234 25.718828,48.506638 
	C26.106853,48.818222 27.542904,47.824661 28.512848,46.717171 
z"/>
<path fill="#797979" opacity="1.000000" stroke="none" 
	d="
M25.972908,11.254374 
	C27.507999,13.408654 28.668697,15.788631 30.566483,16.847340 
	C35.465988,19.580603 40.746487,21.621305 45.757374,24.169548 
	C47.608852,25.111103 49.131905,26.698486 51.595406,28.602369 
	C48.334000,31.351444 45.531681,33.713547 43.801121,35.172253 
	C37.114796,32.059299 31.397293,29.403212 25.685904,26.734035 
	C24.351595,26.110455 22.954428,25.570784 21.729490,24.772581 
	C16.594610,21.426546 16.096416,18.983269 20.131310,14.465051 
	C21.583527,12.838878 23.972715,12.049443 25.972908,11.254374 
z"/>
<path fill="#797979" opacity="1.000000" stroke="none" 
	d="
M36.746056,43.526478 
	C34.940437,45.225372 33.371113,46.636875 31.380003,48.427750 
	C30.627054,40.493408 23.960573,40.252754 19.297480,37.649265 
	C14.798302,35.137287 10.192492,32.816299 4.421871,29.772247 
	C8.707308,26.356688 11.591565,24.057890 13.314512,22.684675 
	C19.397879,25.633268 24.459732,28.117107 29.551426,30.538202 
	C31.334803,31.386194 33.301189,31.891888 34.994236,32.879280 
	C40.060181,35.833763 40.510311,38.468334 36.746056,43.526478 
z"/>
<path fill="#6C6C6C" opacity="1.000000" stroke="none" 
	d="
M32.459816,15.458067 
	C29.254866,14.224464 28.027765,12.242409 28.889744,7.380269 
	C32.774242,10.876253 35.802914,13.602008 38.831585,16.327763 
	C38.533012,16.759834 38.234436,17.191906 37.935863,17.623978 
	C36.221336,16.944859 34.506813,16.265741 32.459816,15.458067 
z"/>
<path fill="#6D6D6D" opacity="1.000000" stroke="none" 
	d="
M28.503593,47.075890 
	C27.542904,47.824661 26.106853,48.818222 25.718828,48.506638 
	C23.233877,46.511234 20.979063,44.229233 19.026190,41.577858 
	C23.213556,41.635166 27.012123,42.144405 28.503593,47.075890 
z"/>
</svg>

<svg xmlns="http://www.w3.org/2000/svg" xml:space="preserve" viewBox="0 0 52 56"><path fill="#010101" d="M36.005 57H1.003L1.001 1.003c17.33 0 34.662 0 51.995-.002L53 56.997C47.502 57 42.004 57 36.005 57m-10.07-46.122c-1.962 1.171-4.351 1.96-5.804 3.587-4.035 4.518-3.536 6.962 1.598 10.308 1.225.798 2.623 1.337 3.957 1.961 5.711 2.67 11.429 5.325 18.115 8.438l7.794-6.57c-2.463-1.904-3.986-3.49-5.838-4.432-5.01-2.549-10.291-4.59-15.19-7.323-1.898-1.058-3.059-3.438-4.633-5.969M36.982 43.24c3.528-4.77 3.078-7.405-1.988-10.36-1.693-.987-3.66-1.493-5.443-2.34-5.091-2.422-10.153-4.906-16.236-7.854l-8.893 7.087c5.77 3.044 10.376 5.365 14.875 7.877 4.664 2.604 11.33 2.844 12.083 10.779 1.991-1.791 3.56-3.203 5.602-5.189m-4.19-27.652 5.144 2.037.896-1.296L28.89 7.38c-.862 4.862.365 6.844 3.902 8.207m-4.28 31.13c-1.5-4.573-5.298-5.082-9.486-5.14 1.953 2.652 4.208 4.934 6.693 6.93.388.311 1.824-.682 2.794-1.79z"/><path fill="#797979" d="M25.973 11.254c1.535 2.155 2.696 4.535 4.593 5.593 4.9 2.734 10.18 4.774 15.191 7.323 1.852.941 3.375 2.528 5.838 4.432l-7.794 6.57c-6.686-3.113-12.404-5.769-18.115-8.438-1.334-.624-2.732-1.163-3.957-1.961-5.134-3.346-5.633-5.79-1.598-10.308 1.453-1.626 3.842-2.416 5.842-3.21zM36.746 43.526c-1.806 1.7-3.375 3.11-5.366 4.902-.753-7.935-7.42-8.175-12.083-10.779-4.499-2.512-9.105-4.833-14.875-7.877l8.893-7.087c6.083 2.948 11.145 5.432 16.236 7.853 1.784.848 3.75 1.354 5.443 2.341 5.066 2.955 5.516 5.59 1.752 10.647z"/><path fill="#6C6C6C" d="M32.46 15.458c-3.205-1.234-4.432-3.216-3.57-8.078l9.942 8.948-.896 1.296c-1.715-.68-3.43-1.358-5.476-2.166z"/><path fill="#6D6D6D" d="M28.504 47.076c-.961.749-2.397 1.742-2.785 1.43-2.485-1.995-4.74-4.277-6.693-6.928 4.188.057 7.986.566 9.478 5.498z"/></svg>
